;FLAVOR:Marlin
;TIME:6666
;Filament used: 0m
;Layer height: 0.6
;MINX:2.14748e+06
;MINY:2.14748e+06
;MINZ:2.14748e+06
;MAXX:-2.14748e+06
;MAXY:-2.14748e+06
;MAXZ:-2.14748e+06

;Generated with Cura_SteamEngine master
G21
G90
G28
G1 F5000 Z3.0
G92 E0 Z0
G1 E20
G92 E0
;LAYER_COUNT:1
;LAYER:0
M107
;MESH:Model.stl
G0 F21000 X57.814 Y49.26 Z0.450
;TYPE:WALL-OUTER
G1 F7200 E0
G1 E+1.22
G92 E0
G1 F1800 X57.82 Y49.312 E0.00295
G1 X57.82 Y57.889 E0.48697
G1 X57.805 Y57.943 E0.49013
G1 X57.794 Y57.98 E0.49231
G1 X57.647 Y57.986 E0.50061
G1 X57.637 Y57.959 E0.50094
G1 X57.61 Y57.888 E0.50334
G1 X57.61 Y49.312 E0.7574
G1 X57.611 Y49.282 E0.75798
G1 X57.667 Y49.209 E0.76317
G1 X57.813 Y49.246 E0.77167
G1 X57.814 Y49.26
G0 F21000 X57.82 Y49.312
G0 X57.82 Y49.46
G1 F7200 E-29.22833
G0 F21000 X57.72 Y49.46
G0 X57.8 Y52.772
G0 X59.752 Y52.743
G0 X62.459 Y52.772
G0 X62.39 Y52.7
G1 F7200 E0.77167
G1 F1800 X62.39 Y49.462 E0.9544
G1 X62.391 Y49.431 E0.95615
G1 X62.434 Y49.364 E0.96064
G1 X62.445 Y49.346 E0.96183
G1 X62.494 Y49.331 E0.96472
G1 X62.581 Y49.392 E0.97072
G1 X62.582 Y49.406
G1 X62.59 Y49.462 E0.97265
G1 X62.59 Y52.703 E1.06414
G1 X62.953 Y52.734 E1.0847
G1 X63.136 Y52.751 E1.09507
G1 X63.348 Y52.767 E1.10707
G1 X63.926 Y52.812 E1.13978
G1 X64.015 Y52.821 E1.14483
G1 X64.35 Y52.859 E1.16386
G1 X64.74 Y52.903 E1.186
G1 X65.243 Y52.968 E1.21463
G1 X65.351 Y52.983 E1.22078
G1 X65.499 Y53.04 E1.22973
G1 X65.503 Y53.089 E1.2325
G1 X65.509 Y53.14 E1.2354
G1 X65.492 Y53.139
G1 X65.34 Y53.127 E1.2387
G1 X65.224 Y53.117 E1.24124
G1 X64.722 Y53.058 E1.25212
G1 X64.333 Y53.012 E1.26062
G1 X63.998 Y52.98 E1.26801
G1 X63.915 Y52.974 E1.26905
G1 X63.336 Y52.931 E1.28242
G1 X63.123 Y52.914 E1.28735
G1 X62.939 Y52.898 E1.29163
G1 X62.582 Y52.881 E1.30014
G1 X62.382 Y52.871 E1.30893
G1 X61.916 Y52.847 E1.33526
G1 X61.341 Y52.83 E1.36772
G1 X61.25 Y52.827 E1.37286
G1 X60.992 Y52.823 E1.38742
G1 X60.856 Y52.82 E1.3951
G1 X59.839 Y52.82 E1.45249
G1 X59.822 Y52.819 E1.45345
G1 X59.745 Y52.757 E1.45903
G1 X59.733 Y52.747 E1.45991
G1 X59.783 Y52.651 E1.46602
G1 X59.839 Y52.64 E1.46669
G1 X60.856 Y52.64 E1.49252
G1 X60.995 Y52.641 E1.49611
G1 X61.255 Y52.648 E1.50277
G1 X61.346 Y52.651 E1.50439
G1 X61.923 Y52.678 E1.51861
G1 X62.39 Y52.7 E1.52983
G0 F21000 X62.39 Y52.5
G1 F7200 E-28.47017
G0 F21000 X62.49 Y52.501
G0 X63.335 Y54.37
G0 X64.346 Y54.711
G0 X64.45 Y56.42
G0 X64.38 Y56.35
G1 F7200 E1.52983
G1 F1800 X64.379 Y54.974 E1.60748
G1 X64.331 Y54.8 E1.61767
G1 X64.312 Y54.731 E1.62171
G1 X64.21 Y54.627 E1.62993
G1 X64.175 Y54.592 E1.63272
G1 X64.032 Y54.558 E1.64102
G1 X63.871 Y54.518 E1.65038
G1 X63.733 Y54.51 E1.65818
G1 X61.207 Y54.511 E1.80073
G1 X61.001 Y54.547 E1.81253
G1 X60.833 Y54.577 E1.82216
G1 X60.821 Y54.588 E1.82308
G1 X60.705 Y54.702 E1.83225
G1 X60.657 Y54.748 E1.83601
G1 X60.651 Y54.777 E1.83768
G1 X60.6 Y55.024 E1.85191
G1 X60.6 Y56.35 E1.92674
G1 X64.38 Y56.35 E2.14005
G0 F21000 X64.38 Y56.15
G0 X64.38 Y56.51
G1 F1800 X60.6 Y56.51 E2.22537
G1 X60.6 Y57.64 E2.28914
G1 X60.562 Y57.713 E2.29379
G1 X60.444 Y57.714 E2.30045
G1 X60.401 Y57.647 E2.30494
G1 X60.401 Y56.51 E2.33696
G1 X60.401 Y56.35 E2.34404
G1 X60.401 Y55.024 E2.38126
G1 X60.401 Y54.748 E2.39036
G1 X60.401 Y54.726
G1 X60.412 Y54.683 E2.39191
G1 X60.467 Y54.479 E2.40173
G1 X60.472 Y54.463 E2.402
G1 X60.493 Y54.452 E2.40258
G1 X60.619 Y54.382 E2.40873
G1 X60.813 Y54.365 E2.41649
G1 X60.966 Y54.35 E2.42071
G1 X61.207 Y54.35 E2.42737
G1 X63.733 Y54.35 E2.48457
G1 X63.871 Y54.35 E2.48776
G1 X64.082 Y54.351 E2.49413
G1 X64.215 Y54.375 E2.49809
G1 X64.372 Y54.405 E2.50487
G1 X64.424 Y54.415 E2.50655
G1 X64.52 Y54.503 E2.51204
G1 X64.536 Y54.518 E2.5128
G1 X64.568 Y54.679 E2.52001
G1 X64.579 Y54.731 E2.52178
G1 X64.579 Y54.974 E2.53042
G1 X64.579 Y56.35 E2.56915
G1 X64.579 Y56.509 E2.57618
G1 X64.58 Y57.7 E2.64339
G1 X64.529 Y57.776 E2.64855
G1 X64.476 Y57.789 E2.65163
G1 X64.383 Y57.733 E2.65776
G1 X64.382 Y57.719
G1 X64.38 Y57.7 E2.65883
G1 X64.38 Y56.51 E2.69223
G0 F21000 X64.18 Y56.51
G1 F7200 E-27.30777
G0 F21000 X64.18 Y56.45
G0 X64.56 Y54.732
G0 X65.737 Y58.206
G0 X66.814 Y58.873
G0 X68.583 Y54.237
G0 X71.246 Y54.144
G0 X71.172 Y54.21
G1 F7200 E2.69223
G1 F1800 X69.529 Y54.21 E2.78495
G1 X69.495 Y54.209 E2.78687
G1 X69.441 Y54.121 E2.79269
G1 X69.498 Y54.033 E2.79861
G1 X69.529 Y54.03 E2.79934
G1 X71.172 Y54.03 E2.84107
G1 X71.428 Y54.03 E2.85551
G1 X74.022 Y54.03 E3.0019
G1 X74.29 Y54.03 E3.01702
G1 X75.939 Y54.031 E3.11008
G1 X76.008 Y54.122 E3.11652
G1 X75.97 Y54.205 E3.12167
G1 X75.959 Y54.206
G1 X75.934 Y54.209 E3.12309
G1 X74.29 Y54.21 E3.16453
G1 X74.511 Y56.547 E3.297
G1 X74.458 Y56.616 E3.30191
G1 X74.275 Y56.619 E3.31224
G1 X74.241 Y56.574 E3.31542
G1 X74.025 Y54.235 E3.4044
G1 X74.022 Y54.21
G1 X71.428 Y54.21 E3.47027
G1 X71.426 Y54.233
G1 X71.212 Y56.51 E3.59933
G1 X71.208 Y56.543 E3.60121
G1 X71.081 Y56.594 E3.60893
G1 X70.949 Y56.536 E3.61707
G1 X70.938 Y56.485 E3.61922
G1 X71.172 Y54.21 E3.70477
G0 F21000 X70.972 Y54.21
G1 F7200 E-26.29523
G0 F21000 X70.973 Y54.13
G0 X74.478 Y54.05
G0 X74.48 Y52.44
G0 X74.55 Y52.29
G1 F7200 E3.70477
G1 F1800 X76.5 Y52.29 E3.81481
G1 X76.525 Y52.291 E3.81623
G1 X76.586 Y52.332 E3.82037
G1 X76.615 Y52.352 E3.82236
G1 X76.577 Y52.446 E3.82808
G1 X76.554 Y52.45
G1 X76.5 Y52.46 E3.8296
G1 X74.55 Y52.46 E3.87637
G1 X74.36 Y52.46 E3.88709
G1 X71.15 Y52.46 E4.06824
G1 X70.96 Y52.46 E4.07896
G1 X68.989 Y52.46 E4.19019
G1 X68.956 Y52.459 E4.19205
G1 X68.902 Y52.424 E4.19568
G1 X68.88 Y52.409 E4.19718
G1 X68.892 Y52.323 E4.20208
G1 X68.907 Y52.318
G1 X68.989 Y52.29 E4.20445
G1 X70.96 Y52.29 E4.25172
G1 X70.96 Y49.322 E4.41921
G1 X70.961 Y49.294 E4.42079
G1 X70.99 Y49.239 E4.4243
G1 X71.003 Y49.214 E4.42589
G1 X71.09 Y49.199 E4.43087
G1 X71.147 Y49.281 E4.434
G1 X71.15 Y49.322 E4.43524
G1 X71.15 Y52.29 E4.5148
G1 X74.36 Y52.29 E4.59179
G1 X74.36 Y49.322 E4.75928
G1 X74.361 Y49.294 E4.76086
G1 X74.401 Y49.23 E4.76512
G1 X74.421 Y49.198 E4.76724
G1 X74.541 Y49.248 E4.77458
G1 X74.543 Y49.271
G1 X74.55 Y49.322 E4.77604
G1 X74.55 Y52.29 E4.8556
G0 F21000 X74.75 Y52.29
G1 F7200 E-25.1444
G0 F21000 X74.749 Y52.36
G0 X68.961 Y52.44
G0 X66.759 Y52.44
G0 X66.677 Y49.287
G0 X66.75 Y49.256
G1 F7200 E4.8556
G1 F1800 X66.759 Y49.298 E4.85802
G1 X66.76 Y57.879 E5.34226
G1 X66.736 Y57.944 E5.34617
G1 X66.714 Y58.003 E5.34973
G1 X66.605 Y57.998 E5.35588
G1 X66.586 Y57.946 E5.35688
G1 X66.56 Y57.879 E5.3588
G1 X66.561 Y49.294 E5.60049
G1 X66.601 Y49.216 E5.60348
G1 X66.609 Y49.202
G1 X66.661 Y49.181 E5.60665
G1 X66.746 Y49.233 E5.61227
G1 X66.75 Y49.256
G0 F21000 X66.759 Y49.298
G0 X66.759 Y49.456
G1 F7200 E-24.38773
G0 F21000 X66.66 Y49.455
G0 X66.759 Y57.57
G0 X69.569 Y57.65
G0 X75.856 Y57.569
G0 X75.902 Y57.501
G1 F7200 E5.61227
G1 F1800 X75.969 Y57.602 E5.61911
G1 X75.905 Y57.669 E5.62434
G1 X69.563 Y57.67 E5.98223
G1 X69.485 Y57.618 E5.98752
G1 X69.528 Y57.511 E5.99402
G1 X69.562 Y57.5 E5.99604
G1 X75.902 Y57.501 E6.14725
G0 F21000 X75.969 Y57.602
G0 X75.915 Y57.659
G1 F7200 E-23.85275
G0 F21000 X75.844 Y57.569
G0 X78.534 Y57.13
G0 X82.008 Y57.355
G0 X81.96 Y57.268
G1 F7200 E6.14725
G1 F1800 X82.048 Y57.179 E6.15431
G1 X82.171 Y57.056 E6.16413
G1 X82.191 Y56.994 E6.16781
G1 X82.242 Y56.839 E6.17701
G1 X82.25 Y56.739 E6.18268
G1 X82.249 Y51.133 E6.49903
G1 X82.206 Y50.914 E6.51163
G1 X82.1 Y50.767 E6.52185
G1 X82.052 Y50.7 E6.5265
G1 X81.829 Y50.583 E6.54072
G1 X81.635 Y50.56 E6.55174
G1 X79.301 Y50.56 E6.68345
G1 X79.168 Y50.589 E6.69113
G1 X79.046 Y50.617 E6.6982
G1 X78.914 Y50.717 E6.70754
G1 X78.858 Y50.76 E6.71153
G1 X78.752 Y50.951 E6.72385
G1 X78.72 Y51.186 E6.73724
G1 X78.72 Y56.713 E7.04914
G1 X78.755 Y56.961 E7.06327
G1 X78.762 Y56.971 E7.06396
G1 X78.887 Y57.162 E7.07684
G1 X78.906 Y57.191 E7.0788
G1 X79.115 Y57.31 E7.09237
G1 X79.323 Y57.34 E7.10423
G1 X81.657 Y57.34 E7.23594
G1 X81.798 Y57.307 E7.24411
G1 X81.96 Y57.268 E7.25351
G0 F21000 X82.048 Y57.179
G0 X82.101 Y57.126
G0 X82.171 Y57.197
G0 X82.289 Y50.627
G0 X82.385 Y50.6
G1 F1800 X82.448 Y50.809 E7.26295
G1 X82.45 Y50.86 E7.26424
G1 X82.45 Y50.914 E7.26525
G1 X82.45 Y51.133 E7.2721
G1 X82.45 Y56.739 E7.43067
G1 X82.45 Y56.839 E7.43355
G1 X82.45 Y57.056 E7.44148
G1 X82.45 Y57.078
G1 X82.442 Y57.115 E7.44213
G1 X82.405 Y57.281 E7.44996
G1 X82.288 Y57.417 E7.45836
G1 X82.073 Y57.488 E7.46854
G1 X81.972 Y57.493 E7.47144
G1 X81.844 Y57.5 E7.47477
G1 X81.657 Y57.5 E7.48019
G1 X79.323 Y57.5 E7.53288
G1 X79.115 Y57.5 E7.538
G1 X79.066 Y57.499 E7.53813
G1 X78.869 Y57.473 E7.54445
G1 X78.746 Y57.456 E7.55045
G1 X78.728 Y57.444 E7.55077
G1 X78.599 Y57.352 E7.55872
G1 X78.585 Y57.315 E7.5603
G1 X78.515 Y57.134 E7.56877
G1 X78.51 Y57.068 E7.57091
G1 X78.51 Y56.961 E7.57491
G1 X78.51 Y56.713 E7.58286
G1 X78.51 Y51.186 E7.74661
G1 X78.51 Y50.951 E7.75409
G1 X78.51 Y50.866 E7.75685
G1 X78.544 Y50.697 E7.76353
G1 X78.564 Y50.6 E7.76759
G1 X78.648 Y50.525 E7.77293
G1 X78.719 Y50.462 E7.77726
G1 X78.81 Y50.449 E7.78077
G1 X79.015 Y50.417 E7.7885
G1 X79.125 Y50.4 E7.79141
G1 X79.301 Y50.4 E7.79645
G1 X81.635 Y50.4 E7.84913
G1 X81.829 Y50.4 E7.85383
G1 X81.902 Y50.401 E7.85477
G1 X82.097 Y50.434 E7.86067
G1 X82.234 Y50.458 E7.8671
G1 X82.376 Y50.568 E7.87579
G1 X82.385 Y50.6 E7.87692
G0 F21000 X82.442 Y50.791
G1 F7200 E-22.12308
G0 F21000 X82.346 Y50.818
G0 X82.431 Y57.076
G0 X84.75 Y57.078
G0 X84.732 Y57.904
G1 F7200 E7.87692
G1 F1800 X84.73 Y57.888 E7.87783
G1 X84.73 Y49.312 E8.36179
G1 X84.731 Y49.282 E8.36348
G1 X84.768 Y49.217 E8.3677
G1 X84.846 Y49.201 E8.37219
G1 X84.933 Y49.246 E8.37772
G1 X84.934 Y49.26
G1 X84.94 Y49.312 E8.37955
G1 X84.94 Y57.889 E8.63367
G1 X84.93 Y57.933 E8.63622
G1 X84.92 Y57.977 E8.63793
G1 X84.782 Y57.993 E8.64577
G1 X84.733 Y57.93 E8.6484
G1 X84.732 Y57.904 E8.64886
G0 F21000 X84.73 Y57.888
G0 X84.73 Y57.704
G1 F7200 E-21.35114
G0 F21000 X84.83 Y57.705
G0 X84.92 Y55.906
G0 X87.112 Y55.91
G0 X91.101 Y55.906
G0 X91.163 Y55.938
G1 F7200 E8.64886
G1 F1800 X91.114 Y55.959 E8.65187
G1 X87.198 Y55.96 E8.87286
G1 X87.135 Y55.936 E8.87666
G1 X87.096 Y55.921 E8.87902
G1 X87.099 Y55.835 E8.88387
G1 X87.142 Y55.818 E8.88445
G1 X87.186 Y55.801 E8.88513
G1 X87.197 Y55.801
G1 X91.104 Y55.8 E8.97281
G1 X91.167 Y55.825 E8.97663
G1 X91.196 Y55.837 E8.97687
G1 X91.193 Y55.926 E8.98189
G1 X91.163 Y55.938 E8.98191
G0 F21000 X91.114 Y55.959
G0 X90.967 Y55.959
G1 F7200 E-21.01809
G0 F21000 X90.967 Y55.901
G0 X91.322 Y54.561
G0 X92.63 Y54.51
G0 X92.56 Y54.58
G1 F7200 E8.98191
G1 F1800 X91.317 Y54.58 E9.05205
G1 X91.235 Y54.528 E9.05753
G1 X91.269 Y54.428 E9.06349
G1 X91.279 Y54.426
G1 X91.294 Y54.422 E9.06437
G1 X91.316 Y54.422
G1 X92.56 Y54.42 E9.0922
G1 X92.56 Y52.06 E9.22538
G1 X91.452 Y52.06 E9.28791
G1 X91.392 Y52.036 E9.29156
G1 X91.375 Y52.029 E9.29259
G1 X91.34 Y51.985 E9.29577
G1 X91.331 Y51.973 E9.29661
G1 X91.378 Y51.944 E9.29755
G1 X91.446 Y51.901 E9.29958
G1 X92.56 Y51.9 E9.32475
G1 X92.56 Y49.56 E9.4568
G1 X92.561 Y49.539 E9.45799
G1 X92.599 Y49.472 E9.46233
G1 X92.71 Y49.477 E9.4686
G1 X92.74 Y49.56 E9.47088
G1 X92.74 Y51.9 E9.5303
G1 X92.74 Y52.06 E9.53719
G1 X92.74 Y54.42 E9.59712
G1 X92.74 Y54.58 E9.604
G1 X92.74 Y57.76 E9.78346
G1 X92.739 Y57.785 E9.78487
G1 X92.694 Y57.852 E9.78942
G1 X92.569 Y57.829 E9.7966
G1 X92.567 Y57.808
G1 X92.56 Y57.76 E9.79724
G1 X92.56 Y54.58 E9.87799
G0 F21000 X92.36 Y54.58
G0 X92.36 Y54.48
G0 X92.588 Y52.032
G0 X91.399 Y52.026
G0 X90.692 Y53.535
G0 X89.323 Y54.28
G0 X88.423 Y53.953
G1 F1800 X88.543 Y54.018 E9.88569
G1 X88.813 Y54.165 E9.90304
G1 X88.917 Y54.18 E9.90897
G1 X89.324 Y54.24 E9.93219
G1 X89.365 Y54.234 E9.93453
G1 X89.7 Y54.184 E9.95364
G1 X89.738 Y54.178 E9.95581
G1 X90.057 Y54.023 E9.97582
G1 X90.144 Y53.98 E9.9813
G1 X90.297 Y53.819 E9.99383
G1 X90.427 Y53.683 E10.00445
G1 X90.523 Y53.467 E10.01779
G1 X90.667 Y53.144 E10.03775
G1 X90.687 Y53.04 E10.04372
G1 X90.762 Y52.657 E10.06575
G1 X90.764 Y52.544 E10.07213
G1 X90.774 Y52.065 E10.09916
G1 X90.77 Y52.04 E10.10059
G1 X90.701 Y51.595 E10.126
G1 X90.682 Y51.479 E10.13264
G1 X90.584 Y51.25 E10.14669
G1 X90.444 Y50.923 E10.16677
G1 X90.408 Y50.882 E10.16984
G1 X90.189 Y50.637 E10.18839
G1 X90.161 Y50.622 E10.19018
G1 X89.86 Y50.453 E10.20966
G1 X89.829 Y50.436 E10.21166
G1 X89.375 Y50.342 E10.23782
G1 X88.969 Y50.392 E10.2609
G1 X88.824 Y50.41 E10.26915
G1 X88.655 Y50.495 E10.27983
G1 X88.471 Y50.588 E10.29146
G1 X88.348 Y50.718 E10.30156
G1 X88.172 Y50.903 E10.31597
G1 X88.119 Y51.017 E10.32306
G1 X87.957 Y51.365 E10.34472
G1 X87.944 Y51.428 E10.34835
G1 X87.838 Y51.932 E10.37742
G1 X87.827 Y52.502 E10.40959
G1 X87.826 Y52.516 E10.41038
G1 X87.909 Y53.058 E10.44133
G1 X87.913 Y53.082 E10.4427
G1 X88.045 Y53.404 E10.46234
G1 X88.129 Y53.609 E10.47484
G1 X88.234 Y53.732 E10.48396
G1 X88.423 Y53.953 E10.50038
G0 F21000 X88.543 Y54.018
G0 X88.599 Y54.048
G0 X88.551 Y54.135
G0 X87.875 Y53.093
G0 X87.799 Y51.929
G0 X88.137 Y50.883
G0 X89.369 Y50.285
G0 X89.363 Y50.187
G1 F1800 X89.396 Y50.184 E10.50224
G1 X89.406 Y50.186 E10.50282
G1 X89.861 Y50.278 E10.51332
G1 X89.947 Y50.296 E10.51467
G1 X90.251 Y50.459 E10.52352
G1 X90.307 Y50.513 E10.5262
G1 X90.555 Y50.75 E10.53534
G1 X90.601 Y50.826 E10.53823
G1 X90.802 Y51.156 E10.55013
G1 X90.887 Y51.409 E10.55887
G1 X90.938 Y51.557 E10.56438
G1 X90.996 Y52.004 E10.57934
G1 X90.996 Y52.031 E10.58023
G1 X90.996 Y52.063 E10.58133
G1 X91 Y52.548 E10.59707
G1 X90.979 Y52.689 E10.602
G1 X90.919 Y53.085 E10.61498
G1 X90.862 Y53.224 E10.62028
G1 X90.725 Y53.556 E10.63125
G1 X90.562 Y53.78 E10.63944
G1 X90.437 Y53.951 E10.64515
G1 X90.237 Y54.102 E10.65171
G1 X90.134 Y54.18 E10.65516
G1 X89.784 Y54.305 E10.66355
G1 X89.722 Y54.327
G1 X89.387 Y54.376 E10.67041
G1 X89.313 Y54.37 E10.67245
G1 X88.895 Y54.333 E10.681
G1 X88.769 Y54.288 E10.68422
G1 X88.458 Y54.176 E10.69184
G1 X88.328 Y54.069 E10.69628
G1 X88.08 Y53.865 E10.70478
G1 X87.978 Y53.708 E10.71022
G1 X87.836 Y53.49 E10.71824
G1 X87.712 Y53.157 E10.72936
G1 X87.688 Y53.093 E10.73203
G1 X87.606 Y52.55 E10.74931
G1 X87.598 Y52.498 E10.75145
G1 X87.612 Y51.927 E10.7698
G1 X87.613 Y51.896 E10.77117
G1 X87.711 Y51.38 E10.78848
G1 X87.756 Y51.278 E10.79265
G1 X87.912 Y50.921 E10.805
G1 X88.027 Y50.783 E10.81103
G1 X88.198 Y50.577 E10.81862
G1 X88.383 Y50.455 E10.82501
G1 X88.572 Y50.331 E10.8308
G1 X88.781 Y50.268 E10.83641
G1 X88.947 Y50.218 E10.84083
G1 X89.363 Y50.187 E10.85069
G0 F21000 X89.396 Y50.184
G0 X89.406 Y50.186
G0 X89.559 Y50.217
G1 F7200 E-19.14931
G0 F21000 X89.547 Y50.276
G0 X90.476 Y50.9
G0 X90.966 Y52.221
G0 X92.588 Y52.032
G0 X92.72 Y57.78
G0 X94.03 Y57.782
G0 X94.036 Y57.959
G1 F7200 E10.85069
G1 F1800 X94.01 Y57.889 E10.85491
G1 X94.01 Y49.312 E11.33892
G1 X94.011 Y49.282 E11.34061
G1 X94.066 Y49.209 E11.34577
G1 X94.2 Y49.228 E11.35341
G1 X94.22 Y49.312 E11.35571
G1 X94.22 Y57.889 E11.60982
G1 X94.207 Y57.941 E11.61102
G1 X94.196 Y57.979 E11.61155
G1 X94.046 Y57.985 E11.62002
G1 X94.036 Y57.959 E11.62035
G0 F21000 X94.01 Y57.889
G0 X94.01 Y57.763
G1 F7200 E-18.37965
G0 F21000 X94.11 Y57.764
G0 X93.317 Y58.448
G0 X92.104 Y58.549
G0 X91.091 Y57.68
G0 X90.192 Y57.578
G1 F7200 E11.62035
G1 F1800 X90.12 Y57.6 E11.6246
G1 X88.158 Y57.6 E11.73532
G1 X88.14 Y57.599 E11.73634
G1 X88.063 Y57.535 E11.74199
G1 X88.053 Y57.526 E11.74275
G1 X88.102 Y57.433 E11.74868
G1 X88.158 Y57.421 E11.74933
G1 X90.12 Y57.421 E11.79887
G1 X90.145 Y57.421
G1 X90.201 Y57.451 E11.80022
G1 X90.227 Y57.466
G1 X90.215 Y57.572 E11.80624
G1 X90.192 Y57.578
G0 F21000 X90.12 Y57.6
G0 X89.995 Y57.6
G1 F7200 E-18.19376
G0 F21000 X89.996 Y57.521
G0 X91.017 Y57.116
G0 X92.026 Y58.513
G0 X94.28 Y58.853
G0 X95.084 Y57.917
G0 X95.082 Y55.438
G0 X96.831 Y54.717
G0 X98.19 Y54.263
G0 X99.464 Y53.872
G0 X99.412 Y53.831
G1 F7200 E11.80624
G1 F1800 X99.42 Y53.818 E11.8071
G1 X99.701 Y53.377 E11.83661
G1 X99.844 Y52.91 E11.86417
G1 X99.846 Y52.881 E11.86581
G1 X99.89 Y52.344 E11.89621
G1 X99.849 Y51.812 E11.92632
G1 X99.688 Y51.293 E11.95699
G1 X99.474 Y50.952 E11.97971
G1 X99.441 Y50.9 E11.98318
G1 X99.209 Y50.702 E12.00039
G1 X99.146 Y50.648 E12.00508
G1 X98.868 Y50.527 E12.02219
